theme/img/logo-multivisi.svg

<svg width="192" height="36" viewBox="0 0 192 36" fill="none" xmlns="http://www.w3.org/2000/svg">
<path fill-rule="evenodd" clip-rule="evenodd" d="M9.33615 23.3164C9.64485 22.5658 23.3986 -2.46623 23.3986 11.1547C23.3986 15.4496 22.0615 20.2448 21.312 24.4699C22.1054 22.6075 37.0202 -2.93877 37.0202 11.2381C37.0202 15.8388 35.301 20.342 35.0805 24.9146C34.5957 35.5334 56.5195 6.91575 58.2534 4.84473C50.8476 15.7416 38.5631 31.058 35.0952 31.1413C26.117 31.3222 35.8005 12.1415 32.2152 12.1415C29.5554 12.1415 20.3275 27.3054 20.3275 30.3493C20.3275 30.4326 20.357 30.5715 20.4009 30.7802C20.2246 30.8218 19.9307 30.9191 19.4899 31.058C19.3136 31.1274 19.0343 31.1552 18.6522 31.1552C17.5062 31.1552 16.933 30.5438 16.933 29.3067C16.933 24.1921 19.5341 18.8132 19.5341 13.615C19.5341 12.6838 19.2254 12.2112 18.6083 12.2112C15.7283 12.2112 8.8364 26.6937 8.8364 29.7792C8.8364 30.0712 8.9393 30.3632 9.13036 30.641C7.4993 31.4333 5.30981 31.4888 5.30981 28.8064C5.30981 24.3726 8.38116 13.9486 5.61851 10.3625C7.26431 9.69545 10.3059 8.36116 10.3059 11.6551C10.3059 15.4774 9.67404 19.508 9.33615 23.3164Z" fill="#003CE5"/>
<path fill-rule="evenodd" clip-rule="evenodd" d="M182.648 30.9142V16.1537H186.69V30.9142H182.648ZM165.472 30.9142V28.3046H173.875C174.396 28.3046 174.932 28.2797 175.443 28.1995C175.805 28.1425 176.18 28.0532 176.499 27.9055C176.727 27.8012 176.929 27.6648 177.062 27.4848C177.194 27.3079 177.243 27.1089 177.243 26.9057C177.243 26.7416 177.199 26.5857 177.106 26.4388C176.999 26.2716 176.838 26.129 176.657 26.008C176.372 25.8166 176 25.6539 175.667 25.5195C175.12 25.299 174.541 25.1102 173.969 24.9328L170.09 23.7297C169.425 23.5233 168.763 23.2852 168.151 22.9935C167.641 22.7509 167.153 22.4652 166.741 22.1253C166.376 21.8239 166.073 21.4815 165.868 21.0968C165.669 20.7213 165.572 20.3252 165.572 19.9182C165.572 19.3501 165.739 18.8093 166.112 18.3208C166.498 17.816 167.058 17.4231 167.694 17.1181C168.429 16.7663 169.251 16.537 170.089 16.3904C171.087 16.2158 172.125 16.1537 173.146 16.1537H180.323V18.7435H172.129C171.77 18.7435 171.402 18.7673 171.053 18.8348C170.782 18.8869 170.517 18.9677 170.284 19.0885C170.112 19.178 169.949 19.2906 169.845 19.4329C169.751 19.5607 169.713 19.7008 169.713 19.8479C169.713 19.9885 169.75 20.1214 169.832 20.2467C169.925 20.3904 170.068 20.5123 170.226 20.6147C170.515 20.8023 170.961 20.975 171.298 21.1031C171.979 21.3627 172.683 21.5941 173.388 21.8112L176.765 22.8501C177.456 23.0624 178.137 23.3116 178.771 23.6141C179.296 23.8644 179.803 24.158 180.226 24.5093C181.003 25.1533 181.417 25.9218 181.417 26.809C181.417 27.429 181.248 28.026 180.853 28.5671C180.455 29.1153 179.872 29.5442 179.193 29.8773C178.411 30.2608 177.522 30.5052 176.624 30.6602C175.531 30.8493 174.391 30.9142 173.273 30.9142H165.472ZM159.779 30.9142V16.1537H163.82V30.9142H159.779ZM149.286 27.368L154.905 16.3402L155.001 16.1537H159.111L158.848 16.664L152.482 29.1088C152.322 29.4218 152.13 29.7291 151.897 30.0128C151.703 30.2495 151.472 30.4757 151.196 30.6563C150.937 30.8255 150.642 30.9508 150.322 31.033C149.987 31.1186 149.636 31.1549 149.285 31.1549C148.935 31.1549 148.584 31.1189 148.25 31.0339C147.932 30.9528 147.638 30.8281 147.38 30.6597C147.106 30.4802 146.876 30.2546 146.683 30.0202C146.449 29.7356 146.256 29.4252 146.089 29.1097L139.46 16.1537H143.588L143.707 16.3896L149.286 27.368ZM134.756 30.9142V16.1537H138.797V30.9142H134.756ZM122.957 18.6233H117.023V16.1537H132.934V18.6233H126.999V30.9142H122.957V18.6233ZM106.992 16.1537H111.033V25.9501C111.033 26.3155 111.102 26.6857 111.292 27.0219C111.463 27.3244 111.721 27.5755 112.051 27.7811C112.429 28.0158 112.87 28.1722 113.333 28.2729C113.924 28.4018 114.556 28.4449 115.168 28.4449H119.853V30.9142H115.698C114.454 30.9142 113.172 30.8366 111.963 30.5996C110.985 30.408 110.027 30.1044 109.219 29.6247C108.474 29.1825 107.912 28.6201 107.541 27.9483C107.14 27.224 106.992 26.4312 106.992 25.646V16.1537ZM91.9191 16.1537V25.2483C91.9191 26.1715 92.1751 27.1183 93.0507 27.7822C93.4439 28.0804 93.9156 28.287 94.4323 28.4228C95.063 28.5881 95.7456 28.6453 96.4081 28.6453C97.0697 28.6453 97.75 28.5878 98.3796 28.4228C98.898 28.2865 99.3714 28.0793 99.7668 27.7813C100.155 27.4888 100.432 27.1347 100.614 26.7382C100.832 26.2645 100.908 25.7497 100.908 25.2483V16.1537H104.95V25.3387C104.95 26.1588 104.778 26.9695 104.358 27.7244C103.954 28.4517 103.348 29.0714 102.579 29.587C101.777 30.1251 100.856 30.514 99.8522 30.7671C98.7427 31.0469 97.5706 31.1549 96.4081 31.1549C95.2461 31.1549 94.0743 31.0472 92.9651 30.7677C91.9605 30.5145 91.039 30.1259 90.2373 29.587C89.4703 29.0714 88.8671 28.4515 88.4651 27.7246C88.0481 26.9695 87.8775 26.1582 87.8775 25.3387V16.1537H91.9191ZM73.4859 26.7322L78.177 17.6082C78.3012 17.3667 78.4568 17.134 78.6546 16.9242C78.8432 16.7243 79.0662 16.5475 79.3236 16.402C79.5785 16.2583 79.8594 16.15 80.1598 16.0789C80.4694 16.0057 80.7911 15.9731 81.114 15.9731C81.4768 15.9731 81.8405 16.0097 82.1846 16.101C82.5115 16.1872 82.8074 16.3207 83.0645 16.5001C83.3242 16.6818 83.5308 16.9004 83.6879 17.1433C83.8574 17.4055 83.9693 17.6904 84.0436 17.9821L87.0109 30.563L87.0943 30.9142H83.1734L83.1014 30.607L80.7375 20.3335L76.0544 29.417C75.9288 29.6605 75.7792 29.8989 75.598 30.1202C75.4407 30.3121 75.2559 30.4961 75.0348 30.6455C74.823 30.7881 74.5827 30.8961 74.3196 30.9684C74.0517 31.0421 73.7711 31.0747 73.4879 31.0747C73.2019 31.0747 72.9165 31.0452 72.6438 30.9752C72.3796 30.9069 72.1381 30.8023 71.9249 30.6625C71.7007 30.5157 71.5139 30.3328 71.3566 30.1409C71.1703 29.9136 71.0175 29.6673 70.8886 29.4172L66.2071 20.3383L63.805 30.9142H59.8499L62.8997 17.9795C62.9728 17.6913 63.0848 17.4061 63.2545 17.1433C63.4116 16.9004 63.6185 16.6818 63.8782 16.5001C64.135 16.3207 64.4315 16.1872 64.7581 16.101C65.1025 16.0097 65.4661 15.9731 65.829 15.9731C66.1518 15.9731 66.4736 16.0057 66.7828 16.0789C67.0833 16.1503 67.3642 16.2583 67.6185 16.402C67.8759 16.5472 68.0981 16.7241 68.2849 16.9245C68.4814 17.1351 68.6359 17.3684 68.7541 17.6068L73.4859 26.7322Z" fill="#003CE5"/>
</svg>

<svg xmlns="http://www.w3.org/2000/svg" fill="none" width="192" height="36" viewBox="0 0 192 36"><path d="M9.336 23.316C9.645 22.566 23.4-2.466 23.4 11.155c0 4.295-1.338 9.09-2.087 13.315.793-1.862 15.708-27.409 15.708-13.232 0 4.6-1.72 9.104-1.94 13.677-.484 10.618 21.44-18 23.173-20.07-7.405 10.897-19.69 26.213-23.158 26.296-8.978.181.706-19-2.88-19-2.66.006-11.888 15.169-11.888 18.214 0 .083.03.22.074.43-.176.042-.47.14-.91.278-.177.07-.457.097-.839.097-1.146-.001-1.72-.612-1.72-1.85.001-5.114 2.602-10.493 2.602-15.69 0-.932-.309-1.405-.926-1.405-2.88 0-9.772 14.483-9.772 17.568 0 .291.103.583.294.86-1.63.793-3.82.849-3.82-1.834 0-4.433 3.071-14.857.31-18.444 1.648-.667 4.691-2 4.691 1.293 0 3.822-.633 7.853-.97 11.66Zm173.312 7.598v-14.76h4.042v14.76h-4.042Zm-17.176 0v-2.61h8.403c.52 0 1.057-.024 1.568-.104.362-.058.737-.147 1.056-.294.223-.105.43-.241.56-.421a.942.942 0 0 0 .18-.58.856.856 0 0 0-.138-.466 1.54 1.54 0 0 0-.449-.431c-.285-.191-.657-.354-.99-.488a21.634 21.634 0 0 0-1.698-.587l-3.879-1.203a14.567 14.567 0 0 1-1.939-.736 6.832 6.832 0 0 1-1.41-.869 3.48 3.48 0 0 1-.873-1.028 2.49 2.49 0 0 1-.296-1.179c0-.568.166-1.109.54-1.597.385-.499.945-.893 1.581-1.197.735-.353 1.557-.58 2.395-.73.998-.173 2.036-.235 3.057-.235h7.177v2.59h-8.194a5.72 5.72 0 0 0-1.077.09c-.27.053-.536.134-.77.255-.169.091-.333.203-.437.345a.68.68 0 0 0-.132.415c.002.14.04.273.121.399.093.142.236.264.394.367.29.187.735.36 1.072.488.681.26 1.385.49 2.09.708l3.377 1.04c.691.21 1.372.46 2.006.763.525.25 1.032.544 1.455.895.777.644 1.191 1.413 1.191 2.3 0 .62-.17 1.217-.564 1.758-.398.549-.98.978-1.66 1.31-.782.385-1.67.629-2.57.784-1.092.19-2.232.254-3.35.254h-7.8Zm-5.693 0v-14.76h4.04v14.76h-4.04Zm-10.493-3.546 5.62-11.028.095-.186h4.11l-.263.51-6.366 12.445a5.02 5.02 0 0 1-.585.904 3.136 3.136 0 0 1-.7.643 2.92 2.92 0 0 1-.875.377 4.199 4.199 0 0 1-1.037.122c-.35 0-.7-.036-1.035-.121a2.896 2.896 0 0 1-.87-.374 3.15 3.15 0 0 1-.697-.64 5.41 5.41 0 0 1-.594-.91l-6.629-12.956h4.128l.12.236 5.58 10.978Zm-14.53 3.546v-14.76h4.04v14.76h-4.04Zm-11.8-12.29h-5.933v-2.47h15.911v2.47H127v12.29h-4.042v-12.29Zm-15.964-2.47h4.04v9.796c.001.366.07.736.26 1.072.17.302.43.554.76.76.377.234.818.39 1.28.49.592.13 1.224.173 1.836.173h4.685v2.47h-4.155c-1.244 0-2.526-.078-3.735-.315-.978-.192-1.936-.496-2.744-.975-.745-.442-1.307-1.005-1.678-1.677-.4-.724-.549-1.517-.549-2.302v-9.492Zm-15.073 0v9.094c0 .924.251 1.87 1.13 2.534.39.298.862.505 1.38.64.63.166 1.312.223 1.974.223.662 0 1.342-.057 1.972-.222.518-.136.991-.344 1.387-.642.388-.292.665-.646.847-1.043.22-.473.295-.988.295-1.49v-9.094h4.042v9.185c0 .82-.172 1.63-.592 2.385-.404.728-1.01 1.347-1.78 1.863-.8.538-1.722.927-2.726 1.18-1.11.28-2.28.388-3.444.388-1.162 0-2.334-.108-3.443-.387-1.005-.253-1.926-.642-2.728-1.181-.767-.516-1.37-1.136-1.772-1.862-.417-.756-.588-1.567-.588-2.386v-9.191h4.042ZM73.481 26.732l4.691-9.124a2.832 2.832 0 0 1 1.147-1.206 3.2 3.2 0 0 1 .836-.323c.31-.073.631-.106.954-.106.364 0 .728.037 1.071.128.328.086.623.22.88.4.26.186.469.4.626.647.17.262.28.547.356.84l2.967 12.58.083.35h-3.92l-.072-.306-2.364-10.273-4.683 9.083a4 4 0 0 1-.455.703 2.664 2.664 0 0 1-.563.525 2.41 2.41 0 0 1-.715.323 3.137 3.137 0 0 1-.832.107c-.286 0-.572-.03-.844-.1a2.4 2.4 0 0 1-.72-.313 2.542 2.542 0 0 1-.567-.521 4.098 4.098 0 0 1-.468-.724l-4.682-9.08-2.402 10.577H59.85L62.9 17.98a2.8 2.8 0 0 1 .355-.837c.157-.243.363-.461.623-.643.257-.18.553-.313.88-.4a4.193 4.193 0 0 1 1.07-.127c.324 0 .646.033.955.106.3.071.58.18.835.323a2.763 2.763 0 0 1 1.136 1.205l4.732 9.125Z" fill="#003CE5" fill-rule="evenodd" clip-rule="evenodd"/></svg>
